symbols-de/shields/motorway_4x2_z18.svg

<?xml version="1.0" encoding="UTF-8" standalone="no"?>
<svg
   xmlns:dc="http://purl.org/dc/elements/1.1/"
   xmlns:cc="http://creativecommons.org/ns#"
   xmlns:rdf="http://www.w3.org/1999/02/22-rdf-syntax-ns#"
   xmlns:svg="http://www.w3.org/2000/svg"
   xmlns="http://www.w3.org/2000/svg"
   xmlns:sodipodi="http://sodipodi.sourceforge.net/DTD/sodipodi-0.dtd"
   xmlns:inkscape="http://www.inkscape.org/namespaces/inkscape"
   width="100%"
   height="100%"
   viewBox="0 0 38.0 28.0"
   id="svg2"
   version="1.1"
   inkscape:version="0.91 r13725"
   sodipodi:docname="autobahn_4x2_z18.svg">
  <metadata
     id="metadata9">
    <rdf:RDF>
      <cc:Work
         rdf:about="">
        <dc:format>image/svg+xml</dc:format>
        <dc:type
           rdf:resource="http://purl.org/dc/dcmitype/StillImage" />
        <dc:title></dc:title>
      </cc:Work>
    </rdf:RDF>
  </metadata>
  <defs
     id="defs7" />
  <sodipodi:namedview
     pagecolor="#ffffff"
     bordercolor="#666666"
     borderopacity="1"
     objecttolerance="10"
     gridtolerance="10"
     guidetolerance="10"
     inkscape:pageopacity="0"
     inkscape:pageshadow="2"
     inkscape:window-width="1028"
     inkscape:window-height="753"
     id="namedview5"
     showgrid="false"
     inkscape:zoom="8.4285714"
     inkscape:cx="19"
     inkscape:cy="14"
     inkscape:window-x="232"
     inkscape:window-y="145"
     inkscape:window-maximized="0"
     inkscape:current-layer="svg2" />
  <path
     style="fill:#365eaf;fill-opacity:1;stroke:#0528a2;stroke-width:1;stroke-miterlimit:4;stroke-dasharray:none;stroke-opacity:1"
     d="m 19.000002,0.500001 c -0.265233,0 -0.397463,0.0039 -0.397463,0.01376 L 1.097581,2.591035 C 0.699731,2.690645 0.5,2.841211 0.5,3.040424 c 0,7.306384 0,14.612769 0,21.919153 0,0.199214 0.199731,0.349785 0.597581,0.449388 l 17.504958,2.077275 c 0,0.0099 0.132234,0.01376 0.397463,0.01376 0.265233,0 0.39746,-0.0039 0.39746,-0.01376 L 36.90242,25.408965 c 0.397852,-0.09961 0.597582,-0.250175 0.597582,-0.449388 0,-7.306385 0,-14.612769 0,-21.919153 0,-0.199213 -0.19973,-0.349785 -0.597582,-0.449389 L 19.397462,0.513759 c 0,-0.0099 -0.132231,-0.01376 -0.39746,-0.01376 z"
     id="path6"
     inkscape:connector-curvature="0"
     sodipodi:nodetypes="sccccccsccccccs" />
</svg>

<?xml version="1.0" encoding="UTF-8"?>
<svg xmlns="http://www.w3.org/2000/svg" xmlns:xlink="http://www.w3.org/1999/xlink" width="37pt" height="36pt" viewBox="0 0 37 36" version="1.1">
<g id="surface1">
<path style="fill-rule:nonzero;fill:rgb(21.176471%,36.862745%,68.627451%);fill-opacity:1;stroke-width:1;stroke-linecap:butt;stroke-linejoin:miter;stroke:rgb(1.960784%,15.686275%,63.529412%);stroke-opacity:1;stroke-miterlimit:4;" d="M 19 0.501302 C 18.73522 0.501302 18.602829 0.50434 18.602829 0.513455 L 1.09924 2.59158 C 0.698057 2.69184 0.501478 2.840712 0.501478 3.041233 C 0.501478 10.34809 0.501478 17.65191 0.501478 24.958767 C 0.501478 25.159288 0.698057 25.30816 1.09924 25.40842 L 18.602829 27.486545 C 18.602829 27.49566 18.73522 27.498698 19 27.498698 C 19.26478 27.498698 19.397171 27.49566 19.397171 27.486545 L 36.90076 25.40842 C 37.301943 25.30816 37.498522 25.159288 37.498522 24.958767 C 37.498522 17.65191 37.498522 10.34809 37.498522 3.041233 C 37.498522 2.840712 37.301943 2.69184 36.90076 2.59158 L 19.397171 0.513455 C 19.397171 0.50434 19.26478 0.501302 19 0.501302 Z M 19 0.501302 " transform="matrix(0.973684,0,0,1.285714,0,0)"/>
</g>
</svg>
